packages/foundations/assets/icons/functional/images/social/face_disappointed_28.svg

<svg width="28" height="28" viewBox="0 0 28 28" fill="none" xmlns="http://www.w3.org/2000/svg">
<g clip-path="url(#clip0_187_356)">
<path fill-rule="evenodd" clip-rule="evenodd" d="M23.0186 14C23.0186 18.9726 18.9726 23.0186 14 23.0186C9.02738 23.0186 4.98138 18.9726 4.98138 14C4.98138 9.02738 9.02738 4.98138 14 4.98138C18.9726 4.98138 23.0186 9.02738 23.0186 14ZM3.5 14C3.5 19.7986 8.20138 24.5 14 24.5C19.7986 24.5 24.5 19.7986 24.5 14C24.5 8.20138 19.7986 3.5 14 3.5C8.20138 3.5 3.5 8.20138 3.5 14ZM12.5116 9.88488C12.0654 9.70025 11.5535 9.912 11.368 10.3582C10.9988 11.2499 9.97063 11.6734 9.08075 11.305C8.63363 11.1195 8.12175 11.3321 7.938 11.7784C7.75338 12.2255 7.96512 12.7374 8.41225 12.922C8.84887 13.1031 9.30125 13.1889 9.74662 13.1889C11.1204 13.1889 12.4267 12.3742 12.985 11.0285C13.1696 10.5822 12.9579 10.0704 12.5116 9.88488ZM20.097 11.7784C19.9124 11.3321 19.3996 11.1195 18.9543 11.305C18.0626 11.6734 17.0363 11.249 16.667 10.3582C16.4815 9.912 15.9688 9.70025 15.5234 9.88488C15.0771 10.0704 14.8654 10.5822 15.05 11.0285C15.6083 12.3742 16.9146 13.1889 18.2884 13.1889C18.7338 13.1889 19.1861 13.1031 19.6227 12.922C20.069 12.7374 20.2816 12.2255 20.097 11.7784ZM18.0049 18.7451C17.9856 18.7364 16.0291 17.9366 14 17.9366C11.9709 17.9366 10.0144 18.7364 9.99512 18.7451C9.6915 18.8694 9.345 18.816 9.09562 18.6051C8.84538 18.3943 8.73337 18.0617 8.806 17.7432C9.135 16.2969 10.6453 13.5625 14 13.5625C17.3547 13.5625 18.865 16.2969 19.194 17.7432C19.2666 18.0617 19.1546 18.3943 18.9044 18.6051C18.7434 18.7408 18.543 18.8116 18.3391 18.8116C18.2271 18.8116 18.1134 18.7898 18.0049 18.7451ZM14 16.1866C14.9494 16.1866 15.8681 16.3292 16.6373 16.5034C16.1061 15.8777 15.2731 15.3116 14 15.3116C12.7269 15.3116 11.8947 15.8777 11.3628 16.5034C12.131 16.3292 13.0506 16.1866 14 16.1866Z" fill="#1A1C1F"/>
</g>
<defs>
<clipPath id="clip0_187_356">
<rect width="28" height="28" fill="white"/>
</clipPath>
</defs>
</svg>

<svg xmlns="http://www.w3.org/2000/svg" width="28" height="28" fill="none"><g clip-path="url(#a)"><path fill="#1A1C1F" fill-rule="evenodd" d="M23.019 14c0 4.973-4.046 9.019-9.019 9.019S4.981 18.973 4.981 14 9.027 4.981 14 4.981 23.019 9.027 23.019 14M3.5 14c0 5.799 4.701 10.5 10.5 10.5S24.5 19.799 24.5 14 19.799 3.5 14 3.5 3.5 8.201 3.5 14m9.012-4.115a.876.876 0 0 0-1.144.473 1.754 1.754 0 0 1-2.287.947.875.875 0 1 0-.668 1.617c.436.181.888.267 1.334.267 1.373 0 2.68-.815 3.238-2.16a.876.876 0 0 0-.473-1.144m7.585 1.893a.874.874 0 0 0-1.143-.473 1.754 1.754 0 0 1-2.287-.947.876.876 0 0 0-1.617.67 3.51 3.51 0 0 0 3.238 2.16c.446 0 .898-.085 1.335-.266a.876.876 0 0 0 .474-1.144m-2.092 6.967c-.02-.009-1.976-.808-4.005-.808s-3.986.8-4.005.808a.877.877 0 0 1-1.189-1.002c.329-1.446 1.84-4.18 5.194-4.18s4.865 2.734 5.194 4.18a.874.874 0 0 1-1.19 1.002M14 16.187c.95 0 1.868.142 2.637.316-.53-.625-1.364-1.191-2.637-1.191s-2.105.566-2.637 1.191A12 12 0 0 1 14 16.187" clip-rule="evenodd"/></g><defs><clipPath id="a"><path fill="#fff" d="M0 0h28v28H0z"/></clipPath></defs></svg>
